X: 35389
T: Ross'
R: reel
M: 4/4
K: Dmajor
F2F2 AFED|ABDE F2ED|E2EF GDEF|GEFD GDDE|
F2F2 AFED|ABDE F2ED|ABdA BdBA|1 DABD ABDA:|2 DABD ABE2|
|:~A3B dA (3AAA|dAde fA (3AAA|e3f gB (3BBB|gBfB eBdB|
A2AB dA (3AAA|dAdf a4|b3a (3Bcd af|egfe dBAB|
~A3B dA (3AAA|dAde fA (3AAA|e3f gB (3BBB|gBaB cBdB|
d2dc dbaf|(3def ad B2dB|ABdA BdAB|dABe d4||

